svgs/sharp-solid/circle-1.svg

<svg xmlns="http://www.w3.org/2000/svg" viewBox="0 0 512 512"><!--! Font Awesome Pro 6.6.0 by @fontawesome - https://fontawesome.com License - https://fontawesome.com/license (Commercial License) Copyright 2024 Fonticons, Inc. --><path d="M0 256a256 256 0 1 1 512 0A256 256 0 1 1 0 256zm176 80l0 48 24 0 56 0 56 0 24 0 0-48-24 0-32 0 0-184 0-24-24 0-8 0-6.2 0-5.4 3L176 164.5l0 54.9 11.7-6.5L232 188.3 232 336l-32 0-24 0z"/></svg>

<svg xmlns="http://www.w3.org/2000/svg" viewBox="0 0 512 512"><!--! Font Awesome Pro 6.5.2 by @fontawesome - https://fontawesome.com License - https://fontawesome.com/license (Commercial License) Copyright 2024 Fonticons, Inc. --><path d="M0 256a256 256 0 1 1 512 0A256 256 0 1 1 0 256zm176 80v48h24 56 56 24V336H312 280V152 128H256h-8-6.2l-5.4 3L176 164.5v54.9l11.7-6.5L232 188.3V336H200 176z"/></svg>
